packages/foundations/assets/icons/functional/images/maps/location_crosshairs_32.svg

<svg width="32" height="32" viewBox="0 0 32 32" fill="none" xmlns="http://www.w3.org/2000/svg">
<g clip-path="url(#clip0_186_42)">
<path fill-rule="evenodd" clip-rule="evenodd" d="M16 2C16.5625 2 17 2.4375 17 3V7.0625C21.1875 7.5312 24.4688 10.8438 24.9375 15H29C29.5625 15 30 15.4375 30 16C30 16.5625 29.5625 17 29 17H24.9375C24.4688 21.1562 21.1562 24.4688 17 24.9375V29C17 29.5625 16.5625 30 16 30C15.4375 30 15 29.5625 15 29V24.9375C10.8438 24.4688 7.5312 21.1875 7.0625 17H3C2.4375 17 2 16.5625 2 16C2 15.4375 2.4375 15 3 15H7.0625C7.5312 10.8438 10.8438 7.5312 15 7.0625V3C15 2.4375 15.4375 2 16 2ZM16 9C12.125 9 9 12.125 9 16C9 19.875 12.125 23 16 23C19.875 23 23 19.875 23 16C23 12.125 19.875 9 16 9ZM16 19C17.6562 19 19 17.6562 19 16C19 14.3438 17.6562 13 16 13C14.3438 13 13 14.3438 13 16C13 17.6562 14.3438 19 16 19Z" fill="#1A1C1F"/>
</g>
<defs>
<clipPath id="clip0_186_42">
<rect width="32" height="32" fill="white"/>
</clipPath>
</defs>
</svg>

<svg xmlns="http://www.w3.org/2000/svg" width="32" height="32" fill="none"><g clip-path="url(#a)"><path fill="#1A1C1F" fill-rule="evenodd" d="M16 2c.563 0 1 .438 1 1v4.063A9 9 0 0 1 24.938 15H29c.563 0 1 .438 1 1s-.437 1-1 1h-4.062A9.03 9.03 0 0 1 17 24.938V29c0 .563-.437 1-1 1s-1-.437-1-1v-4.062A9 9 0 0 1 7.063 17H3c-.562 0-1-.437-1-1s.438-1 1-1h4.063A9.03 9.03 0 0 1 15 7.063V3c0-.562.438-1 1-1m0 7c-3.875 0-7 3.125-7 7s3.125 7 7 7 7-3.125 7-7-3.125-7-7-7m0 10a3 3 0 1 0-.002-6.002A3 3 0 0 0 16 19" clip-rule="evenodd"/></g><defs><clipPath id="a"><path fill="#fff" d="M0 0h32v32H0z"/></clipPath></defs></svg>
